addons/DVs_behavior_tree/icons/cooldown.svg

<svg height="31.999998" viewBox="0 0 8.466666 8.4666661" width="31.999998" xmlns="http://www.w3.org/2000/svg"><g fill="#af9dd9" stroke-linecap="square"><path d="m.83664223 3.9307981v3.925192h6.79338217v-3.925192zm3.37420077.840156c.00727-.0001865.014337 0 .021626 0 .4672375.0000147.850287.3830646.8503022.850302-.0000104.3212259-.181357.6034451-.4463438.7482312v1.0777994h-.8061875v-1.0769344c-.265413-.1445047-.4463336-.4271749-.4463438-.7490962.0000147-.459937.3697191-.8385651.8269469-.850302z" stroke-linejoin="round" stroke-width=".072837"/><path d="m6.7018813 4.0716307v-.861264c0-.8904311-.4758598-1.7161076-1.2469957-2.1613231-.7711358-.44521557-1.7228554-.44521553-2.4939914 0-.7711359.4452155-1.2469957 1.270892-1.2469957 2.1613231v.861264h.6898275v-.861264c0-.6455154.3430493-1.240579.902082-1.5633367s1.2471721-.3227577 1.8062048 0c.5590328.3227577.902082.9178213.902082 1.5633367v.861264z" stroke="#af9dd9" stroke-width=".208989"/></g></svg>

<?xml version="1.0" encoding="UTF-8" standalone="no"?>
<!-- Created with Inkscape (http://www.inkscape.org/) -->

<svg
   width="31.999998"
   height="31.999998"
   viewBox="0 0 8.466666 8.4666661"
   version="1.1"
   id="svg5"
   inkscape:version="1.2.2 (732a01da63, 2022-12-09)"
   sodipodi:docname="cooldown.svg"
   inkscape:export-filename="..\cooldown.svg"
   inkscape:export-xdpi="96"
   inkscape:export-ydpi="96"
   xmlns:inkscape="http://www.inkscape.org/namespaces/inkscape"
   xmlns:sodipodi="http://sodipodi.sourceforge.net/DTD/sodipodi-0.dtd"
   xmlns="http://www.w3.org/2000/svg"
   xmlns:svg="http://www.w3.org/2000/svg">
  <sodipodi:namedview
     id="namedview7"
     pagecolor="#ffffff"
     bordercolor="#000000"
     borderopacity="0.25"
     inkscape:showpageshadow="2"
     inkscape:pageopacity="0.0"
     inkscape:pagecheckerboard="0"
     inkscape:deskcolor="#d1d1d1"
     inkscape:document-units="mm"
     showgrid="false"
     inkscape:zoom="5.6568543"
     inkscape:cx="34.206291"
     inkscape:cy="5.7452426"
     inkscape:window-width="1680"
     inkscape:window-height="988"
     inkscape:window-x="-8"
     inkscape:window-y="-8"
     inkscape:window-maximized="1"
     inkscape:current-layer="layer1" />
  <defs
     id="defs2" />
  <g
     inkscape:label="Layer 1"
     inkscape:groupmode="layer"
     id="layer1">
    <path
       id="rect234"
       style="fill:#af9dd9;stroke-width:0.0728371;stroke-linecap:square;stroke-linejoin:round"
       d="m 0.83664223,3.9307981 v 3.925192 H 7.6300244 V 3.9307981 Z M 4.210843,4.7709541 c 0.00727,-1.865e-4 0.014337,0 0.021626,0 0.4672375,1.47e-5 0.850287,0.3830646 0.8503022,0.850302 -1.04e-5,0.3212259 -0.181357,0.6034451 -0.4463438,0.7482312 V 7.4472867 H 3.8302399 V 6.3703523 C 3.5648269,6.2258476 3.3839063,5.9431774 3.3838961,5.6212561 3.3839108,5.1613191 3.7536152,4.782691 4.210843,4.7709541 Z"
       sodipodi:nodetypes="cccccscccccccs" />
    <path
       style="color:#000000;fill:#af9dd9;stroke:#af9dd9;stroke-width:0.208989;stroke-linecap:square;stroke-dasharray:none;stroke-opacity:1"
       d="m 6.7018813,4.0716307 v -0.861264 c 0,-0.8904311 -0.4758598,-1.7161076 -1.2469957,-2.1613231 -0.7711358,-0.44521557 -1.7228554,-0.44521553 -2.4939914,0 -0.7711359,0.4452155 -1.2469957,1.270892 -1.2469957,2.1613231 v 0.861264 H 2.403726 v -0.861264 c 0,-0.6455154 0.3430493,-1.240579 0.902082,-1.5633367 0.5590327,-0.3227577 1.2471721,-0.3227577 1.8062048,0 0.5590328,0.3227577 0.902082,0.9178213 0.902082,1.5633367 v 0.861264 z"
       id="path4767"
       sodipodi:nodetypes="cssssccsssscc" />
  </g>
</svg>
